src/svg/icon-trophy.svg

<svg width="11" height="11" viewBox="0 0 11 11" fill="none" xmlns="http://www.w3.org/2000/svg">
<path d="M10.45 1.1H8.8V0.55C8.8 0.404131 8.74205 0.264236 8.63891 0.161091C8.53576 0.0579462 8.39587 0 8.25 0H2.75C2.60413 0 2.46424 0.0579462 2.36109 0.161091C2.25795 0.264236 2.2 0.404131 2.2 0.55V1.1H0.55C0.404131 1.1 0.264236 1.15795 0.161091 1.26109C0.0579462 1.36424 0 1.50413 0 1.65V3.3C0 3.88348 0.231785 4.44305 0.644365 4.85564C1.05695 5.26822 1.61652 5.5 2.2 5.5H3.047C3.54449 6.05503 4.21523 6.42529 4.95 6.5505V7.7H4.4C3.96239 7.7 3.54271 7.87384 3.23327 8.18327C2.92384 8.49271 2.75 8.91239 2.75 9.35V10.45C2.75 10.5959 2.80795 10.7358 2.91109 10.8389C3.01424 10.9421 3.15413 11 3.3 11H7.7C7.84587 11 7.98576 10.9421 8.08891 10.8389C8.19205 10.7358 8.25 10.5959 8.25 10.45V9.35C8.25 8.91239 8.07616 8.49271 7.76673 8.18327C7.45729 7.87384 7.03761 7.7 6.6 7.7H6.05V6.5505C6.78477 6.42529 7.45551 6.05503 7.953 5.5H8.8C9.38348 5.5 9.94305 5.26822 10.3556 4.85564C10.7682 4.44305 11 3.88348 11 3.3V1.65C11 1.50413 10.9421 1.36424 10.8389 1.26109C10.7358 1.15795 10.5959 1.1 10.45 1.1ZM2.2 4.4C1.90826 4.4 1.62847 4.28411 1.42218 4.07782C1.21589 3.87153 1.1 3.59174 1.1 3.3V2.2H2.2V3.3C2.20121 3.67494 2.26631 4.04693 2.3925 4.4H2.2ZM6.6 8.8C6.74587 8.8 6.88576 8.85795 6.98891 8.96109C7.09205 9.06424 7.15 9.20413 7.15 9.35V9.9H3.85V9.35C3.85 9.20413 3.90795 9.06424 4.01109 8.96109C4.11424 8.85795 4.25413 8.8 4.4 8.8H6.6ZM7.7 3.3C7.7 3.88348 7.46821 4.44305 7.05563 4.85564C6.64305 5.26822 6.08348 5.5 5.5 5.5C4.91652 5.5 4.35695 5.26822 3.94437 4.85564C3.53179 4.44305 3.3 3.88348 3.3 3.3V1.1H7.7V3.3ZM9.9 3.3C9.9 3.59174 9.78411 3.87153 9.57782 4.07782C9.37153 4.28411 9.09174 4.4 8.8 4.4H8.6075C8.73369 4.04693 8.79879 3.67494 8.8 3.3V2.2H9.9V3.3Z" fill="currentColor"/>
</svg>

<svg xmlns="http://www.w3.org/2000/svg" width="11" height="11" fill="none" viewBox="0 0 11 11"><path fill="currentColor" d="M10.45 1.1H8.8V.55A.55.55 0 0 0 8.25 0h-5.5a.55.55 0 0 0-.55.55v.55H.55a.55.55 0 0 0-.55.55V3.3a2.2 2.2 0 0 0 2.2 2.2h.847A3.3 3.3 0 0 0 4.95 6.55V7.7H4.4a1.65 1.65 0 0 0-1.65 1.65v1.1a.55.55 0 0 0 .55.55h4.4a.55.55 0 0 0 .55-.55v-1.1A1.65 1.65 0 0 0 6.6 7.7h-.55V6.55A3.3 3.3 0 0 0 7.953 5.5H8.8A2.2 2.2 0 0 0 11 3.3V1.65a.55.55 0 0 0-.55-.55M2.2 4.4a1.1 1.1 0 0 1-1.1-1.1V2.2h1.1v1.1a3.3 3.3 0 0 0 .192 1.1zm4.4 4.4a.55.55 0 0 1 .55.55v.55h-3.3v-.55a.55.55 0 0 1 .55-.55zm1.1-5.5a2.2 2.2 0 0 1-4.4 0V1.1h4.4zm2.2 0a1.1 1.1 0 0 1-1.1 1.1h-.193A3.3 3.3 0 0 0 8.8 3.3V2.2h1.1z"/></svg>
